X:79
T:Kesh
Z: id:dc-jig-64
M:6/8
L:1/8
K:G Major
D|G3 GAB|A3 ABd|edd gdd|edB dBA|!
G3 GAB|A3 ABd|edd gdB|AGF G2:|!
A|BAB dBd|ege dBA|BAB dBG|ABA AGA|!
BAB dBd|ege dBd|gfg aga|bgf g2:|!

